src/components/atoms/Icon/icons/happy-dark-regular.svg

<svg width="24" height="24" xmlns="http://www.w3.org/2000/svg"><g fill="none" fill-rule="evenodd"><path d="M0 0h24v24H0z"/><circle fill="#000" fill-rule="nonzero" cx="15.5" cy="9.5" r="1.5"/><circle fill="#000" fill-rule="nonzero" cx="8.5" cy="9.5" r="1.5"/><path d="M0 0h24v24H0z"/><circle fill="#384C57" fill-rule="nonzero" cx="15.5" cy="9.5" r="1.5"/><circle fill="#384C57" fill-rule="nonzero" cx="8.5" cy="9.5" r="1.5"/><path d="M11.99 2C6.47 2 2 6.48 2 12s4.47 10 9.99 10C17.52 22 22 17.52 22 12S17.52 2 11.99 2zM12 20c-4.42 0-8-3.58-8-8s3.58-8 8-8 8 3.58 8 8-3.58 8-8 8zm0-2.5c2.33 0 4.32-1.45 5.12-3.5h-1.67c-.69 1.19-1.97 2-3.45 2-1.48 0-2.75-.81-3.45-2H6.88c.8 2.05 2.79 3.5 5.12 3.5z" fill="#384C57" fill-rule="nonzero"/></g></svg>

<?xml version="1.0" encoding="UTF-8"?>
<svg width="24px" height="24px" viewBox="0 0 24 24" version="1.1" xmlns="http://www.w3.org/2000/svg" xmlns:xlink="http://www.w3.org/1999/xlink">
    <!-- Generator: Sketch 51.1 (57501) - http://www.bohemiancoding.com/sketch -->
    <title>Icon/24/happy-dark</title>
    <desc>Created with Sketch.</desc>
    <defs></defs>
    <g id="Icon/24/happy-dark" stroke="none" stroke-width="1" fill="none" fill-rule="evenodd">
        <g>
            <polygon id="Shape" points="0 0 24 0 24 24 0 24"></polygon>
            <circle id="Oval" fill="#000000" fill-rule="nonzero" cx="15.5" cy="9.5" r="1.5"></circle>
            <circle id="Oval" fill="#000000" fill-rule="nonzero" cx="8.5" cy="9.5" r="1.5"></circle>
            <polygon id="Shape" points="0 0 24 0 24 24 0 24"></polygon>
            <circle id="Oval" fill="#384C57" fill-rule="nonzero" cx="15.5" cy="9.5" r="1.5"></circle>
            <circle id="Oval" fill="#384C57" fill-rule="nonzero" cx="8.5" cy="9.5" r="1.5"></circle>
            <path d="M11.99,2 C6.47,2 2,6.48 2,12 C2,17.52 6.47,22 11.99,22 C17.52,22 22,17.52 22,12 C22,6.48 17.52,2 11.99,2 Z M12,20 C7.58,20 4,16.42 4,12 C4,7.58 7.58,4 12,4 C16.42,4 20,7.58 20,12 C20,16.42 16.42,20 12,20 Z M12,17.5 C14.33,17.5 16.32,16.05 17.12,14 L15.45,14 C14.76,15.19 13.48,16 12,16 C10.52,16 9.25,15.19 8.55,14 L6.88,14 C7.68,16.05 9.67,17.5 12,17.5 Z" id="Shape" fill="#384C57" fill-rule="nonzero"></path>
        </g>
    </g>
</svg>
